X:521
T:B521-  Wigmore's Galliard
Q:1/4=120
L:1/4
M:3/4
K:Eb
E3/2F/E|DEF|G3/2D/ E/F/|GG,z|\
E3/2F/E|FEF/E/|D3/2C/ =B,/=A,/|DG,z|\
E3/2F/E|DEF|G3/2F/ G/=A/|B3/2B/=A|\
G3/2G/F|EDF|=D3/2F/ E/D/|=E3|]

